X: 2310
T: Baddeck Gathering, The
R: jig
M: 6/8
K: Dmajor
A|dcd f^ef|d3 d2 A|dcd f^ef|a3 abc’|
d’bd’ =c’2 A|bgb a2 b|afa d’af|efe edB|
ABd f^ef|d3 d2 A|dcd f^ef|a3 abc’|
d’bd’ =c’2 A|bgb a2 g|fed Afe|d3 d2||
g|fga dcd|df/g/a afd|efg =c2 G|ee/f/g gfe|
fga dAd|fga afd|efg ABc|d3 d2 g|
fga dcd|fad afd|efg =cGg|efg gfe|
fga AA/B/c|dcd A2 G|FED Afe|d3 d2||

